resources/haticons/SVG/add_comment.svg

<!-- Generated by IcoMoon.io -->
<svg version="1.1" xmlns="http://www.w3.org/2000/svg" width="24" height="24" viewBox="0 0 24 24">
<title>add_comment</title>
<path d="M17.016 11.016v-2.016h-4.031v-3.984h-1.969v3.984h-4.031v2.016h4.031v3.984h1.969v-3.984h4.031zM21.984 3.984v18l-3.984-3.984h-14.016q-0.797 0-1.383-0.609t-0.586-1.406v-12q0-0.797 0.586-1.383t1.383-0.586h16.031q0.797 0 1.383 0.586t0.586 1.383z"></path>
</svg>

<svg xmlns="http://www.w3.org/2000/svg" width="24" height="24"><path d="M17.016 11.016V9h-4.031V5.016h-1.969V9H6.985v2.016h4.031V15h1.969v-3.984h4.031zm4.968-7.032v18L18 18H3.984q-.797 0-1.383-.609t-.586-1.406v-12q0-.797.586-1.383t1.383-.586h16.031q.797 0 1.383.586t.586 1.383z"/></svg>
